devices/symbolic/audio-headphones-symbolic.svg

<?xml version="1.0" encoding="UTF-8" standalone="no"?>
<svg
   xmlns:dc="http://purl.org/dc/elements/1.1/"
   xmlns:cc="http://creativecommons.org/ns#"
   xmlns:rdf="http://www.w3.org/1999/02/22-rdf-syntax-ns#"
   xmlns:svg="http://www.w3.org/2000/svg"
   xmlns="http://www.w3.org/2000/svg"
   id="svg6"
   version="1.1"
   width="16"
   height="16">
  <metadata
     id="metadata12">
    <rdf:RDF>
      <cc:Work
         rdf:about="">
        <dc:format>image/svg+xml</dc:format>
        <dc:type
           rdf:resource="http://purl.org/dc/dcmitype/StillImage" />
        <dc:title></dc:title>
      </cc:Work>
    </rdf:RDF>
  </metadata>
  <defs
     id="defs10" />
  <path
     id="path829"
     d="M 8 1.0039062 C 4.685 1.0039062 2 3.6889063 2 7.0039062 L 2 12.003906 L 3 12.003906 L 3 7.0039062 C 3 4.2249063 5.222 2.0039062 8 2.0039062 C 10.779 2.0039062 13 4.2249062 13 7.0039062 L 13 12.003906 L 14 12.003906 L 14 7.0039062 C 14 3.6889063 11.316 1.0039062 8 1.0039062 z M 4 8 L 4 14 L 5 14 C 5 14 6 14 6 13 L 6 9 C 6 8 5 8 5 8 L 4 8 z M 11 8 C 11 8 10 8 10 9 L 10 13 C 10 14 11 14 11 14 L 12 14 L 12 8 L 11 8 z "
     style="color:#000000;font-weight:400;line-height:normal;font-family:sans-serif;font-variant-ligatures:normal;font-variant-position:normal;font-variant-caps:normal;font-variant-numeric:normal;font-variant-alternates:normal;font-feature-settings:normal;text-indent:0;text-align:start;text-decoration:none;text-decoration-line:none;text-decoration-style:solid;text-decoration-color:#000000;text-transform:none;text-orientation:mixed;white-space:normal;shape-padding:0;overflow:visible;isolation:auto;mix-blend-mode:normal;fill:#555761" />
</svg>

<?xml version="1.0" encoding="UTF-8" standalone="no"?>
<svg
   id="svg6"
   version="1.1"
   width="16"
   height="16"
   sodipodi:docname="audio-headphones-symbolic.svg"
   inkscape:version="1.2.2 (b0a8486541, 2022-12-01)"
   xmlns:inkscape="http://www.inkscape.org/namespaces/inkscape"
   xmlns:sodipodi="http://sodipodi.sourceforge.net/DTD/sodipodi-0.dtd"
   xmlns="http://www.w3.org/2000/svg"
   xmlns:svg="http://www.w3.org/2000/svg"
   xmlns:rdf="http://www.w3.org/1999/02/22-rdf-syntax-ns#"
   xmlns:cc="http://creativecommons.org/ns#"
   xmlns:dc="http://purl.org/dc/elements/1.1/">
  <sodipodi:namedview
     id="namedview513"
     pagecolor="#ffffff"
     bordercolor="#000000"
     borderopacity="0.25"
     inkscape:showpageshadow="2"
     inkscape:pageopacity="0.0"
     inkscape:pagecheckerboard="0"
     inkscape:deskcolor="#d1d1d1"
     showgrid="false"
     inkscape:zoom="54.75"
     inkscape:cx="9.0593607"
     inkscape:cy="8"
     inkscape:window-width="1920"
     inkscape:window-height="1029"
     inkscape:window-x="0"
     inkscape:window-y="0"
     inkscape:window-maximized="1"
     inkscape:current-layer="svg6" />
  <metadata
     id="metadata12">
    <rdf:RDF>
      <cc:Work
         rdf:about="">
        <dc:format>image/svg+xml</dc:format>
        <dc:type
           rdf:resource="http://purl.org/dc/dcmitype/StillImage" />
      </cc:Work>
    </rdf:RDF>
  </metadata>
  <defs
     id="defs10" />
  <path
     id="path829"
     d="m 8,1.0000001 c -3.315,0 -6,2.6850001 -6,6 V 12 H 3 V 7.0000001 c 0,-2.7789999 2.222,-5 5,-5 2.779,0 5,2.221 5,5 V 12 h 1 V 7.0000001 c 0,-3.3149999 -2.684,-6 -6,-6 z M 4,8 v 6 h 1 c 0,0 1,0 1,-1 V 9 C 6,8 5,8 5,8 Z m 7,0 c 0,0 -1,0 -1,1 v 4 c 0,1 1,1 1,1 h 1 V 8 Z"
     style="color:#000000;font-weight:400;line-height:normal;font-family:sans-serif;font-variant-ligatures:normal;font-variant-position:normal;font-variant-caps:normal;font-variant-numeric:normal;font-variant-alternates:normal;font-feature-settings:normal;text-indent:0;text-align:start;text-decoration:none;text-decoration-line:none;text-decoration-style:solid;text-decoration-color:#000000;text-transform:none;text-orientation:mixed;white-space:normal;shape-padding:0;overflow:visible;isolation:auto;mix-blend-mode:normal;fill:#555761"
     sodipodi:nodetypes="ssccsssccsscccsscccsscccc" />
</svg>
